X:1
T:Title
%%score [ 1 2 3 ]
L:1/8
Q:1/4=120
M:2/2
K:C
V:1 treble-8 nm="Tenor I"
V:2 treble-8 nm="Tenor II"
V:3 bass nm="Bass"
V:1
 d4 f2 g2 | a4 e2 f2 | g2 g2 f4- | f4 e4 | f2 f2 d2 d2 | e4 c4 | f2 f2 e2 e2 | d8 | e4 g4- | %9
w: La tur- tu-|rel- la la|tur- tu- rel-|* la|pian- ge\_e si la-|men- ta|pian- ge\_e si la-|men-|ta pian-|
 g2 g2 g2 g2 | f8 | e8 :: a4 a2 a2 | g4 f4 | e4 d2 d2 | g2 g2 f2 f2 | e4 f4 | d4 d4 | e8 | c4 d4 | %20
w: * ge\_e si la-|men-|ta|Del- la per-|sa com-|pa- gna del-|la per- sa com-|pa- gna|ca- ra\_e|mes-|ta so-|
 e4 c4 | d4 e4 | f2 f2 e2 e2 | d4 d2 g2 | f4 f4 | e8 | d8 :| %27
w: la la|se ne|va per la fo-|res- ta per|la fo-|res-|ta.|
V:2
 z8 | A4 c2 d2 | e2 e2 d4 | d2 B2 c2 c2 | d2 d2 B2 B2 | c4 A4 | A2 B2 c2 c2 | B2 c4 B2 | c4 e4- | %9
w: |La tur- tu-|rel- la la|tur- tu- rel- la|pian- ge\_e si la-|men- ta|pian- ge\_e si la-|men- * *|ta pian-|
 e2 e2 e2 e2 | d8 | ^c8 :: =c4 c2 d2 | e4 d4 | c4 B2 B2 | e2 e2 d2 d2 | ^c4 d4 | B4 B4 | c8 | %19
w: * ge\_e si la-|men-|ta|Del- la per-|sa com-|pa- gna del-|la per- sa com-|pa- gna|ca- ra\_e|mes-|
 A4 A4 | G4 A4 | B4 c4 | A2 B2 c2 c2 | B4 d2 e2 | d4 d4 | (d4 ^c4) | d8 :| %27
w: ta so-|la la|se ne|va per la fo-|res- ta per|la fo-|res- *|ta.|
V:3
 z8 | z8 | z4 D,4 | F,2 G,2 A,2 A,2 | D,2 D,2 G,2 G,2 | C,4 F,4 | D,2 D,2 C,2 C,2 | G,8 | %8
w: ||La|tur- tu- rel- la|pian- ge\_e si la-|men- ta|pian- ge\_e si la-|men-|
 C,4 C,4- | C,2 C,2 C,2 C,2 | D,2 E,2 F,2 G,2 | A,8 :: F,4 F,2 F,2 | C,4 D,4 | A,4 G,2 G,2 | %15
w: ta pian-|* ge\_e si la-|men- * * *|ta|Del- la per-|sa com-|pa- gna del-|
 C,2 C,2 D,2 D,2 | A,4 D,4 | G,4 G,4 | C,8 | F,4 F,4 | G,4 A,4 | G,4 C,4 | D,2 D,2 C,2 C,2 | %23
w: la per- sa com-|pa- gna|ca- ra\_e|mes-|ta so-|la la|se ne|va per la fo-|
 G,4 G,2 C,2 | D,4 D,4 | A,8 | D,8 :| %27
w: res- ta per|la fo-|res-|ta.|

